X:3030
T:Jimmy Batty's
O:england
M:C|
L:1/8
R:reel
K:D
dAAB AGFE|DFAB ADFA|B~E3 B/2c/2d ef|gaaf edfe|
dAAB AGFE|DFAB ADFA|BEEA B/2c/2d eg|fdec defe:|
:dAAB AGFG|Aage f/2a/2f ed|Beed edef|g2fg edBc|
dAAB AGFG|Aage f/2a/2f ed|dfed BAFB|AFAB defe:|
